X:127
T:Cat's Meow
T:Cat's Miaow, The
R:jig
C:Joannie Madden
Z:id:hn-jig-127
M:6/8
K:D
FAd ~f3|afe d2A|B/c/dB AFA|dAF ~E3|FAd ~f3|afe d2A|B/c/de fdB|AFE D3:|
|:fdB ~A3|DFA def|gef ged|ced cBA|fdB ~A3|DFA def|gef gec|edc d3:|
|:Adf ~a3|agf agf|Ace ~g3|gfe gfe|~f3 ~g3|~a3 bag|faf gec|edc d3:|
P:Variations
|:FAd ~f3|afe dBA|~B3 BAF|dAF EAG|FAd ~f3|afe dBA|Bde fdB|1 AFA d3:|2 AFA d2e||
|:fdB AFA|DFA dfa|~g3 ged|ced cBA|fdB AFA|DFA dfa|~g3 age|edc d3:|
|:Adf faa|agf agf|Ace ~g3|gfe gfe|f2d g2e|agf efg|faf gec|edc d3:|

